plasma/desktoptheme/Arc-Color/widgets/menubaritem.svg

<?xml version="1.0" encoding="UTF-8"?>
<svg width="102" height="34" version="1.1" xmlns="http://www.w3.org/2000/svg">
 <defs>
  <style id="current-color-scheme" type="text/css">.ColorScheme-Background {color:#2f343f; } .ColorScheme-ButtonBackground { color:#444a58; } .ColorScheme-Highlight { color:#5c87cc; } .ColorScheme-Text { color:#d3dae3; } .ColorScheme-NegativeText { color:#f44336; } .ColorScheme-PositiveText { color:#4caf50; } .ColorScheme-NeutralText { color:#ff9800; }</style>
 </defs>
 <path id="hover-center" class="ColorScheme-Text" d="m62 6v22h-22v-22z" fill="currentColor" opacity=".05"/>
 <g id="hover-left" transform="translate(34)">
  <path d="m0 6h6v22h-6z" opacity=".001"/>
  <path class="ColorScheme-Text" d="m2 6h4v22h-4z" fill="currentColor" opacity=".05"/>
 </g>
 <g id="hover-topleft" transform="translate(34)">
  <path d="m0 0h6v6h-6z" opacity=".001"/>
  <path class="ColorScheme-Text" d="m6 2v4h-4v-4z" fill="currentColor" opacity=".05"/>
 </g>
 <g id="hover-right" transform="translate(34)">
  <path d="m28 6h6v22h-6z" opacity=".001"/>
  <path class="ColorScheme-Text" d="m28 6h4v22h-4z" fill="currentColor" opacity=".05"/>
 </g>
 <g id="hover-top" transform="translate(34)">
  <path d="m28 0v6h-22v-6z" opacity=".001"/>
  <path class="ColorScheme-Text" d="m28 2v4h-22v-4z" fill="currentColor" opacity=".05"/>
 </g>
 <g id="hover-bottom" transform="translate(34)">
  <path d="m28 28v6h-22v-6z" opacity=".001"/>
  <path class="ColorScheme-Text" d="m28 28v4h-22v-4z" fill="currentColor" opacity=".05"/>
 </g>
 <g id="hover-bottomright" transform="translate(34)">
  <path d="m28 28h6v6h-6z" opacity=".001"/>
  <path class="ColorScheme-Text" d="m28 32v-4h4v4z" fill="currentColor" opacity=".05"/>
 </g>
 <g id="hover-topright" transform="translate(34)">
  <path d="m28 0h6v6h-6z" opacity=".001"/>
  <path class="ColorScheme-Text" d="m28 2v4h4v-4z" fill="currentColor" opacity=".05"/>
 </g>
 <g id="hover-bottomleft" transform="translate(34)">
  <path d="m0 28h6v6h-6z" opacity=".001"/>
  <path class="ColorScheme-Text" d="m6 32v-4h-4v4z" fill="currentColor" opacity=".05"/>
 </g>
 <path id="normal-center" d="m28 6v22h-22v-22z" fill="transparent"/>
 <g id="normal-left">
  <path d="m0 6h6v22h-6z" opacity=".001"/>
  <path d="m2 6h4v22h-4z" fill="transparent"/>
 </g>
 <g id="normal-topleft">
  <path d="m0 0h6v6h-6z" opacity=".001"/>
  <path d="m2 2v4s0.015625 9.766e-4 0.044922 0h3.9551v-4h-0.044922-3.9551z" fill="transparent"/>
 </g>
 <g id="normal-right">
  <path d="m28 6h6v22h-6z" opacity=".001"/>
  <path d="m28 6h4v22h-4z" fill="transparent"/>
 </g>
 <g id="normal-top">
  <path d="m28 0v6h-22v-6z" opacity=".001"/>
  <path d="m28 2v4h-22v-4z" fill="transparent"/>
 </g>
 <g id="normal-bottom">
  <path d="m28 28v6h-22v-6z" opacity=".001"/>
  <path d="m28 28v4h-22v-4z" fill="transparent"/>
 </g>
 <g id="normal-bottomright">
  <path d="m28 28h6v6h-6z" opacity=".001"/>
  <path d="m28 28v4h0.044922 3.9551v-4h-0.044922-3.9551z" fill="transparent"/>
 </g>
 <g id="normal-topright">
  <path d="m28 0h6v6h-6z" opacity=".001"/>
  <path d="m28 2s-9.77e-4 0.015625 0 0.044922v3.9551h4v-4h-3.9551-0.044922z" fill="transparent"/>
 </g>
 <g id="normal-bottomleft">
  <path d="m0 28h6v6h-6z" opacity=".001"/>
  <path d="m2 28v4h3.9551 0.044922v-4h-3.9551c-0.029297-9.77e-4 -0.044922 0-0.044922 0z" fill="transparent"/>
 </g>
 <path id="pressed-center" class="ColorScheme-Highlight" d="m96 6v22h-22v-22z" fill="currentColor"/>
 <g id="pressed-left" transform="translate(68)">
  <path d="m0 6h6v22h-6z" opacity=".001"/>
  <path class="ColorScheme-Highlight" transform="translate(-68)" d="m70 6v22h1 3v-22h-3-1z" fill="currentColor"/>
 </g>
 <g id="pressed-topleft" transform="translate(68)">
  <path d="m0 0h6v6h-6z" opacity=".001"/>
  <path class="ColorScheme-Highlight" transform="translate(-68)" d="m70 2v4h1 3v-3-1h-4z" fill="currentColor"/>
 </g>
 <g id="pressed-right" transform="translate(68)">
  <path d="m28 6h6v22h-6z" opacity=".001"/>
  <path class="ColorScheme-Highlight" transform="translate(-68)" d="m96 6v22h3 1v-22h-1-3z" fill="currentColor"/>
 </g>
 <g id="pressed-top" transform="translate(68)">
  <path d="m28 0v6h-22v-6z" opacity=".001"/>
  <path class="ColorScheme-Highlight" transform="translate(-68)" d="m74 2v1 3h22v-3-1h-22z" fill="currentColor"/>
 </g>
 <g id="pressed-bottom" transform="translate(68)">
  <path d="m28 28v6h-22v-6z" opacity=".001"/>
  <path class="ColorScheme-Highlight" transform="translate(-68)" d="m74 28v3 1h22v-1-3h-22z" fill="currentColor"/>
 </g>
 <g id="pressed-bottomright" transform="translate(68)">
  <path d="m28 28h6v6h-6z" opacity=".001"/>
  <path class="ColorScheme-Highlight" transform="translate(-68)" d="m96 28v3 1h4v-4h-1-3z" fill="currentColor"/>
 </g>
 <g id="pressed-topright" transform="translate(68)">
  <path d="m28 0h6v6h-6z" opacity=".001"/>
  <path class="ColorScheme-Highlight" transform="translate(-68)" d="m96 2v1 3h3 1v-4h-4z" fill="currentColor"/>
 </g>
 <g id="pressed-bottomleft" transform="translate(68)">
  <path d="m0 28h6v6h-6z" opacity=".001"/>
  <path class="ColorScheme-Highlight" transform="translate(-68)" d="m70 28v4h4v-1-3h-3-1z" fill="currentColor"/>
 </g>
 <path id="normal-hint-top-margin" d="m16 0h2v6h-2z" fill="#f00"/>
 <path id="normal-hint-bottom-margin" d="m16 28h2v6h-2z" fill="#f00"/>
 <path id="normal-hint-left-margin" d="m0 16h6v2h-6z" fill="#f00"/>
 <path id="normal-hint-right-margin" d="m28 16h6v2h-6z" fill="#f00"/>
 <path id="hover-hint-top-margin" d="m50 0h2v6h-2z" fill="#f00"/>
 <path id="hover-hint-bottom-margin" d="m50 28h2v6h-2z" fill="#f00"/>
 <path id="hover-hint-left-margin" d="m34 16h6v2h-6z" fill="#f00"/>
 <path id="hover-hint-right-margin" d="m62 16h6v2h-6z" fill="#f00"/>
 <path id="pressed-hint-top-margin" d="m84 0h2v6h-2z" fill="#f00"/>
 <path id="pressed-hint-bottom-margin" d="m84 28h2v6h-2z" fill="#f00"/>
 <path id="pressed-hint-left-margin" d="m68 16h6v2h-6z" fill="#f00"/>
 <path id="pressed-hint-right-margin" d="m96 16h6v2h-6z" fill="#f00"/>
 <rect id="hint-stretch-borders" width="2" height="2" fill="#f00"/>
</svg>

<svg xmlns="http://www.w3.org/2000/svg" width="102" height="34" version="1.1">
<defs>
  <style id="current-color-scheme" type="text/css">
   .ColorScheme-Background {color:#2f343f; } .ColorScheme-ButtonBackground { color:#444a58; } .ColorScheme-Highlight { color:#5c87cc; } .ColorScheme-Text { color:#d3dae3; } .ColorScheme-NegativeText { color:#f44336; } .ColorScheme-PositiveText { color:#4caf50; } .ColorScheme-NeutralText { color:#ff9800; }
  </style>
 </defs>
 <path id="hover-center" style="opacity:0.05;fill:currentColor" class="ColorScheme-Text" d="M 62,6 V 28 H 40 V 6 Z"/>
 <g id="hover-left" transform="translate(34)">
  <path style="opacity:0.001" d="M 0,6 H 6 V 28 H 0 Z"/>
  <path style="opacity:0.05;fill:currentColor" class="ColorScheme-Text" d="M 2,6 H 6 V 28 H 2 Z"/>
 </g>
 <g id="hover-topleft" transform="translate(34)">
  <path style="opacity:0.001" d="M 0,0 H 6 V 6 H 0 Z"/>
  <path style="opacity:0.05;fill:currentColor" class="ColorScheme-Text" d="M 6,2 V 6 H 2 V 2 Z"/>
 </g>
 <g id="hover-right" transform="translate(34)">
  <path style="opacity:0.001" d="m 28,6 h 6 v 22 h -6 z"/>
  <path style="opacity:0.05;fill:currentColor" class="ColorScheme-Text" d="m 28,6 h 4 v 22 h -4 z"/>
 </g>
 <g id="hover-top" transform="translate(34)">
  <path style="opacity:0.001" d="M 28,0 V 6 H 6 V 0 Z"/>
  <path style="opacity:0.05;fill:currentColor" class="ColorScheme-Text" d="M 28,2 V 6 H 6 V 2 Z"/>
 </g>
 <g id="hover-bottom" transform="translate(34)">
  <path style="opacity:0.001" d="m 28,28 v 6 H 6 v -6 z"/>
  <path style="opacity:0.05;fill:currentColor" class="ColorScheme-Text" d="m 28,28 v 4 H 6 v -4 z"/>
 </g>
 <g id="hover-bottomright" transform="translate(34)">
  <path style="opacity:0.001" d="m 28,28 h 6 v 6 h -6 z"/>
  <path style="opacity:0.05;fill:currentColor" class="ColorScheme-Text" d="m 28,32 v -4 h 4 v 4 z"/>
 </g>
 <g id="hover-topright" transform="translate(34)">
  <path style="opacity:0.001" d="m 28,0 h 6 v 6 h -6 z"/>
  <path style="opacity:0.05;fill:currentColor" class="ColorScheme-Text" d="m 28,2 v 4 h 4 V 2 Z"/>
 </g>
 <g id="hover-bottomleft" transform="translate(34)">
  <path style="opacity:0.001" d="m 0,28 h 6 v 6 H 0 Z"/>
  <path style="opacity:0.05;fill:currentColor" class="ColorScheme-Text" d="M 6,32 V 28 H 2 v 4 z"/>
 </g>
 <path id="normal-center" fill="transparent" d="M 28,6 V 28 H 6 V 6 Z"/>
 <g id="normal-left">
  <path style="opacity:0.001" d="M 0,6 H 6 V 28 H 0 Z"/>
  <path fill="transparent" d="M 2,6 H 6 V 28 H 2 Z"/>
 </g>
 <g id="normal-topleft">
  <path style="opacity:0.001" d="M 0,0 H 6 V 6 H 0 Z"/>
  <path fill="transparent" d="M 2 2 L 2 6 C 2 6 2.015625 6.0009766 2.0449219 6 L 6 6 L 6 2 L 5.9550781 2 L 2 2 z"/>
 </g>
 <g id="normal-right">
  <path style="opacity:0.001" d="m 28,6 h 6 v 22 h -6 z"/>
  <path fill="transparent" d="m 28,6 h 4 v 22 h -4 z"/>
 </g>
 <g id="normal-top">
  <path style="opacity:0.001" d="M 28,0 V 6 H 6 V 0 Z"/>
  <path fill="transparent" d="M 28,2 V 6 H 6 V 2 Z"/>
 </g>
 <g id="normal-bottom">
  <path style="opacity:0.001" d="m 28,28 v 6 H 6 v -6 z"/>
  <path fill="transparent" d="m 28,28 v 4 H 6 v -4 z"/>
 </g>
 <g id="normal-bottomright">
  <path style="opacity:0.001" d="m 28,28 h 6 v 6 h -6 z"/>
  <path fill="transparent" d="M 28 28 L 28 32 L 28.044922 32 L 32 32 L 32 28 L 31.955078 28 L 28 28 z"/>
 </g>
 <g id="normal-topright">
  <path style="opacity:0.001" d="m 28,0 h 6 v 6 h -6 z"/>
  <path fill="transparent" d="M 28 2 C 28 2 27.999023 2.015625 28 2.0449219 L 28 6 L 32 6 L 32 2 L 28.044922 2 L 28 2 z"/>
 </g>
 <g id="normal-bottomleft">
  <path style="opacity:0.001" d="m 0,28 h 6 v 6 H 0 Z"/>
  <path fill="transparent" d="M 2 28 L 2 32 L 5.9550781 32 L 6 32 L 6 28 L 2.0449219 28 C 2.015625 27.999023 2 28 2 28 z"/>
 </g>
 <path id="pressed-center" style="fill:currentColor" class="ColorScheme-Highlight" d="M 96,6 V 28 H 74 V 6 Z"/>
 <g id="pressed-left" transform="translate(68)">
  <path style="opacity:0.001" d="M 0,6 H 6 V 28 H 0 Z"/>
  <path style="fill:currentColor" class="ColorScheme-Highlight" transform="translate(-68)" d="M 70 6 L 70 28 L 71 28 L 74 28 L 74 6 L 71 6 L 70 6 z"/>
 </g>
 <g id="pressed-topleft" transform="translate(68)">
  <path style="opacity:0.001" d="M 0,0 H 6 V 6 H 0 Z"/>
  <path style="fill:currentColor" class="ColorScheme-Highlight" transform="translate(-68)" d="M 70 2 L 70 6 L 71 6 L 74 6 L 74 3 L 74 2 L 70 2 z"/>
 </g>
 <g id="pressed-right" transform="translate(68)">
  <path style="opacity:0.001" d="m 28,6 h 6 v 22 h -6 z"/>
  <path style="fill:currentColor" class="ColorScheme-Highlight" transform="translate(-68)" d="M 96 6 L 96 28 L 99 28 L 100 28 L 100 6 L 99 6 L 96 6 z"/>
 </g>
 <g id="pressed-top" transform="translate(68)">
  <path style="opacity:0.001" d="M 28,0 V 6 H 6 V 0 Z"/>
  <path style="fill:currentColor" class="ColorScheme-Highlight" transform="translate(-68)" d="M 74 2 L 74 3 L 74 6 L 96 6 L 96 3 L 96 2 L 74 2 z"/>
 </g>
 <g id="pressed-bottom" transform="translate(68)">
  <path style="opacity:0.001" d="m 28,28 v 6 H 6 v -6 z"/>
  <path style="fill:currentColor" class="ColorScheme-Highlight" transform="translate(-68)" d="M 74 28 L 74 31 L 74 32 L 96 32 L 96 31 L 96 28 L 74 28 z"/>
 </g>
 <g id="pressed-bottomright" transform="translate(68)">
  <path style="opacity:0.001" d="m 28,28 h 6 v 6 h -6 z"/>
  <path style="fill:currentColor" class="ColorScheme-Highlight" transform="translate(-68)" d="M 96 28 L 96 31 L 96 32 L 100 32 L 100 28 L 99 28 L 96 28 z"/>
 </g>
 <g id="pressed-topright" transform="translate(68)">
  <path style="opacity:0.001" d="m 28,0 h 6 v 6 h -6 z"/>
  <path style="fill:currentColor" class="ColorScheme-Highlight" transform="translate(-68)" d="M 96 2 L 96 3 L 96 6 L 99 6 L 100 6 L 100 2 L 96 2 z"/>
 </g>
 <g id="pressed-bottomleft" transform="translate(68)">
  <path style="opacity:0.001" d="m 0,28 h 6 v 6 H 0 Z"/>
  <path style="fill:currentColor" class="ColorScheme-Highlight" transform="translate(-68)" d="M 70 28 L 70 32 L 74 32 L 74 31 L 74 28 L 71 28 L 70 28 z"/>
 </g>
 <path id="normal-hint-top-margin" style="fill:#ff0000" d="m 16,0 h 2 v 6 h -2 z"/>
 <path id="normal-hint-bottom-margin" style="fill:#ff0000" d="m 16,28 h 2 v 6 h -2 z"/>
 <path id="normal-hint-left-margin" style="fill:#ff0000" d="m 0,16 h 6.0000002 v 2 H 0 Z"/>
 <path id="normal-hint-right-margin" style="fill:#ff0000" d="m 28,16 h 6 v 2 h -6 z"/>
 <path id="hover-hint-top-margin" style="fill:#ff0000" d="m 50,0 h 2 v 6 h -2 z"/>
 <path id="hover-hint-bottom-margin" style="fill:#ff0000" d="m 50,28 h 2 v 6 h -2 z"/>
 <path id="hover-hint-left-margin" style="fill:#ff0000" d="m 34,16 h 6 v 2 h -6 z"/>
 <path id="hover-hint-right-margin" style="fill:#ff0000" d="m 62,16 h 6 v 2 h -6 z"/>
 <path id="pressed-hint-top-margin" style="fill:#ff0000" d="m 84,0 h 2 v 6 h -2 z"/>
 <path id="pressed-hint-bottom-margin" style="fill:#ff0000" d="m 84,28 h 2 v 6 h -2 z"/>
 <path id="pressed-hint-left-margin" style="fill:#ff0000" d="m 68,16 h 6 v 2 h -6 z"/>
 <path id="pressed-hint-right-margin" style="fill:#ff0000" d="m 96,16 h 6 v 2 h -6 z"/>
 <rect id="hint-stretch-borders" style="fill:#ff0000" width="2" height="2" x="0" y="0"/>
</svg>
